!!!COM: Charles Gounod
!!!CNT: Francais
!!!TXO: Francais
!!!OTL: "Le lever"
!!!LYR: de Musset
!!!OPR: 
!!!OPS: Op. 
!!!ONM: No.
!!!ENC: Emily Thomas
!!!YOR: CD Sheet Music French Art Songs, The Ultimate Collection
!!!YOR: CD Sheet Music, LLC 2003
!!!ODT: 1855/
!!NB: Vocal melody and text encoded.
**kern	**silbe
=1	=1
*clefG2	*
*k[b-]	*
*M6/8	*
*MM[Allegro. (mourt de chasse)]	*
2.r	.
=2	=2
2.r	.
=3	=3
2.r	.
=4	=4
2.r	.
=5	=5
2.r	.
=6	=6
2.r	.
=7	=7
2.r	.
=8	=8
2.r	.
=9	=9
2.r	.
=10	=10
4r	.
8r	.
4r	.
{8f	{As-
=11	=11
4a	-sez
8cc	dor-
4dd	-mir
8cc	ma
=12	=12
4.a	bel-
4f}	-le}
8r	.
=13	=13
8r	.
{8b-	{Ta
8cc	ca-
8dd	-vale
8ee	Is-
8dd	-a-
=14	=14
4.cc	-bel-
8a}	-le}
8r	.
{8cc	{Hen-
=15	=15
4cc	-nit
8g	sous
4cc	tes
8ee	bal-
=16	=16
[2.cc	-cons
=17	=17
8cc]}	|}
8r	.
8r	.
4r	.
{8cc	{Vois
=18	=18
4cc	les
8dd	pi-
4ee	-queurs
8ff	a-
=19	=19
4.ff	-ler-
8a}	-tes}
8r	.
{8a	{Et
=20	=20
4.dd	sur
8dd	leurs
8cc	man-
8b-	-ches
=21	=21
4.dd	ver-
8dd}	-tes}
8r	.
{8dd	{Les
=22	=22
4ff	pieds
8cc	noirs
16ccq	des
16ddq	|
4cc	|
8b-	fau-
=23	=23
[2.b-	-cons
=24	=24
8b-]}	|}
8r	.
8r	.
4r	.
{8b-	{Vois
=25	=25
4b-	e/-
8cc	-cu-
4dd	-yers
8g	et
=26	=26
4.a	pa-
4g}	-ges}
8r	.
=27	=27
8r	.
{8g	{En
8a	gal-
8b-	-lants
8a	e/-
8g	-qui-
=28	=28
4a	-pa-
8cc	|
4ff}	-ges}
8r	.
=29	=29
{4ff	{Sans
8ee	ro-
8dd	-chet
8cc	ni
8dd	pour-
=30	=30
[2.cc	-point
=31	=31
8cc]}	|}
8r	.
8r	.
4r	.
8r	.
=32	=32
8r	.
{8f	{Te^-
8g	-tes
8a	cha-
8dd	-per-
8cc	-on-
=33	=33
4.cc	-ne/-
4a}	-es}
8r	.
=34	=34
8r	.
{8b-	{Trai-
8cc	-ner
8dd	les
8ff	ha-
8ee	-que
=35	=35
4.dd	-ne/-
4.cc}	-es}
=36	=36
4r	.
{8ff	{Leur
4ff	au-
8ee	-ba-
=37	=37
4cc	-le\te
8a	au
[4.dd	poing
=38	=38
8dd]	|
8cc	Leur
8b-	|
8a	ar-
8g	|
8f	-ba-
=39	=39
[2.cc	-le\te
=40	=40
4.cc]	|
4.cc	au
=41	=41
[2.ff	poingÖ
=42	=42
4ff]}	|}
8r	.
4r	.
8r	.
=43	=43
2.r	.
=44	=44
2.r	.
=45	=45
2.r	.
=46	=46
2.r	.
=47	=47
2.r	.
=48	=48
2.r	.
=49	=49
2.r	.
=50	=50
4r	.
8r	.
4r	.
{8f	{Vois
=51	=51
4a	bon-
8cc	-dir
4dd	dans
8cc	les
=52	=52
4.a	her-
4f}	-bes}
8r	.
=53	=53
8r	.
{8b-	{Les
8cc	lev-
8dd	-ri
8ee	-ers
8dd	su-
=54	=54
4.cc	-per-
8a}	-bes}
8r	.
{8cc	{Les
=55	=55
4cc	chiens
8g	tra-
4cc	-pus
8ee	cri-
=56	=56
[2.cc	-er
=57	=57
8cc]}	|}
8r	.
8r	.
4r	.
{8cc	{En
=58	=58
4cc	chasse
8dd	et
4ee	chasse
8ff	heu-
=59	=59
4.ff	-reu-
8a}	-se!}
8r	.
{8a	{Al-
=60	=60
4.dd	-lons
8dd	mon
8cc	a-
8b-	-mou-
=61	=61
4.dd	-ren-
8dd}	-se}
8r	.
{8dd	{Le
=62	=62
4ff	pied
8cc	dans
16ccq	l'e/-
16ddq	|
4cc	|
8b-	-tri-
=63	=63
[2.b-	-er!
=64	=64
8b-]}	|}
8r	.
8r	.
4r	.
{8b-	{Oh!
=65	=65
4b-	sur
8cc	ton
4dd	front
8g	qui
=66	=66
4.a	pen-
4g}	-che}
8r	.
=67	=67
8r	.
{8g	{J'aime
8a	a\
8b-	voir
8a	ta
8g	main
=68	=68
4a	blan-
8cc	|
4.ff}	-che}
=69	=69
8r	.
{8ff	{Pei-
8ee	-gner
8dd	tes
8cc	che-
8dd	-veux
=70	=70
[2.cc	noirs
=71	=71
8cc]}	|}
8r	.
8r	.
4r	.
8r	.
=72	=72
8r	.
{8f	{Beaux
8g	che-
8a	-veux
8dd	qu'on
8cc	ras-
=73	=73
4.cc	-sem-
8a	-ble
8b-	Le
8cc	ma-
=74	=74
4dd}	-tin}
8r	.
{4ff	{et
8ee	qu'en-
=75	=75
4.dd	-sem-
4.cc}	-ble}
=76	=76
4r	.
{8ff	{Nous
4ff	de/-
8ee	-fai-
=77	=77
4cc	-sons
8a	les
[4.dd	soirs
=78	=78
8dd]	|
8cc	Nous
8b-	|
8a	de/-
8g	|
8f	-fai-
=79	=79
[2.cc	-sons
=80	=80
4.cc]	|
4.cc	les
=81	=81
[2.ff	soirs!
=82	=82
4ff]}	|}
8r	.
4r	.
8r	.
=83	=83
2.r	.
=84	=84
2.r	.
=85	=85
2.r	.
=86	=86
2.r	.
=87	=87
2.r	.
=88	=88
2.r	.
=89	=89
2.r	.
=90	=90
4r	.
8r	.
4r	.
{8f	{Al-
=91	=91
4a	-lons
8cc	mon
4dd	in-
8cc	-tre/-
=92	=92
4.a	-pi-
4f}	-de}
8r	.
=93	=93
8r	.
{8b-	{Ta
8cc	ca-
8dd	-va-
8ee	-le
8dd	ra-
=94	=94
4.cc	-pi-
4a}	-de}
8r	.
=95	=95
{8cc	{Frap-
8cc	-pe
8g	du
4cc	pied
8ee	le
=96	=96
[2.cc	sol
=97	=97
8cc]}	|}
8r	.
8r	.
4r	.
{8cc	{Et
=98	=98
4cc	ton
8dd	bouf-
4ee	-fon
8ff	ba-
=99	=99
4.ff	-lan-
8a}	-ce}
8r	.
{8a	{Comme
=100	=100
4dd	un
8dd	sold-
8dd	-at
8cc	|
8b-	sa
=101	=101
4.dd	lan-
8dd}	-ce}
8r	.
{8dd	{Son
=102	=102
4ff	jo-
8cc	-yeux
16ccq	pa-
16ddq	|
4cc	|
8b-	-ra-
=103	=103
[2.b-	-sol
=104	=104
8b-]}	|}
8r	.
8r	.
4r	.
{8b-	{Mets
=105	=105
4b-	ton
8cc	e/-
4dd	-char-
8g	-pe
=106	=106
4.a	blon-
4g}	-de}
8r	.
=107	=107
8r	.
{8g	{Sur
8a	ton
8b-	e-
8a	-pau-
8g	-le
=108	=108
4a	ron-
8cc	|
8ff}	-de}
8r	.
{8ff	{Sur
=109	=109
4ff	ton
8ee	cor-
8dd	-sa-
8cc	|
8dd	-ge
=110	=110
[2.cc	d'or
=111	=111
8cc]}	|}
8r	.
8r	.
4r	.
8r	.
=112	=112
8r	.
{8f	{Et
8g	je
8a	vais,
8dd	ma
8cc	char-
=113	=113
4.cc	-man-
4a}	-te,}
8r	.
=114	=114
8r	.
{8b-	{T'em-
8cc	-por-
8dd	-ter
8ff	dans
8ee	ta
=115	=115
4.dd	man-
4cc}	-te}
8r	.
=116	=116
4r	.
{8ff	{Comme
4ff	un
8ee	en-
=117	=117
4cc	-fant
8a	qui
[4.dd	dort
=118	=118
8dd]	|
8cc	Com-
8b-	-me
8a	un
8g	|
8f	en-
=119	=119
[2.cc	-fant
=120	=120
8cc]	|
8a	comme
8dd	un
8b-	en-
8ee	-fant
8cc	qui
=121	=121
[2.ff	dort.
=122	=122
4ff]}	|}
8r	.
4r	.
8r	.
==	==
*-	*-
